X: 52
T: Old Frog Dance - Oddington
T: the Frog Hop
R:jig
S:http://lesters-tune-a-day.blogspot.co.uk/2013/03/tune-189-old-frog-dance-oddington.html
M:6/8
L:1/8
K:G
d |\
BAG Bcd | efe d2d | gfg eaf | g3  d2 \
c |\
BAG Bcd | efe d2d | gfg eag | fef g2 ||
|: g |\
fga aba | afd def | g2g gfe | ecc c3 |\
Bcd g3  | cde a3  | Bcd eag | fef g2 :|


